icon-themes/breeze_svg/cmd/32/inserttitlefield.svg

<svg viewBox="0 0 32 32" xmlns="http://www.w3.org/2000/svg"><path d="m9 7v2h14v-2z" fill="#1d99f3"/><path d="m6 4v24h12 1l7-7v-1-16zm1 1h18v15h-7v7h-11zm2 7v1h14v-1zm0 3v1h11v-1zm0 3v1h7v-1zm0 3v1h7v-1zm0 3v1h7v-1z" fill="#4d4d4d"/></svg>

<svg xmlns="http://www.w3.org/2000/svg" viewBox="0 0 32 32">
 <path 
     style="fill:#1d99f3" 
     d="M 9 7 L 9 9 L 23 9 L 23 7 L 9 7 z "
     />
 <path 
     style="fill:#4d4d4d" 
     d="M 6 4 L 6 28 L 18 28 L 19 28 L 26 21 L 26 20 L 26 4 L 6 4 z M 7 5 L 25 5 L 25 20 L 18 20 L 18 27 L 7 27 L 7 5 z M 9 12 L 9 13 L 23 13 L 23 12 L 9 12 z M 9 15 L 9 16 L 20 16 L 20 15 L 9 15 z M 9 18 L 9 19 L 16 19 L 16 18 L 9 18 z M 9 21 L 9 22 L 16 22 L 16 21 L 9 21 z M 9 24 L 9 25 L 16 25 L 16 24 L 9 24 z "
     />
</svg>
